/* XPM */
static char * E_xpm[] = {
"64 64 6 1",
" 	c #19E9CA",
".	c #E04A77",
"+	c #E9196E",
"@	c #C29195",
"#	c #75D3BC",
"$	c #C9858F",
"                                                                ",
"                                                                ",
"                                                                ",
"                                                                ",
"                                                                ",
"                                                                ",
"                                                                ",
"                                                                ",
"                                                                ",
"                                                                ",
"                .+++++++++++++++++++++++++++@                   ",
"                .+++++++++++++++++++++++++++@                   ",
"                .+++++++++++++++++++++++++++@                   ",
"                .+++++++++++++++++++++++++++@                   ",
"                .+++++++++++++++++++++++++++@                   ",
"                .+++++#                                         ",
"                .+++++#                                         ",
"                .+++++#                                         ",
"                .+++++#                                         ",
"                .+++++#                                         ",
"                .+++++#                                         ",
"                .+++++#                                         ",
"                .+++++#                                         ",
"                .+++++#                                         ",
"                .+++++#                                         ",
"                .+++++#                                         ",
"                .+++++#                                         ",
"                .+++++#                                         ",
"                .++++++++++++++++++++++++++$                    ",
"                .++++++++++++++++++++++++++$                    ",
"                .++++++++++++++++++++++++++$                    ",
"                .++++++++++++++++++++++++++$                    ",
"                .++++++++++++++++++++++++++$                    ",
"                .+++++#                                         ",
"                .+++++#                                         ",
"                .+++++#                                         ",
"                .+++++#                                         ",
"                .+++++#                                         ",
"                .+++++#                                         ",
"                .+++++#                                         ",
"                .+++++#                                         ",
"                .+++++#                                         ",
"                .+++++#                                         ",
"                .+++++#                                         ",
"                .+++++#                                         ",
"                .+++++#                                         ",
"                .+++++#                                         ",
"                .+++++#                                         ",
"                .+++++#                                         ",
"                .+++++#                                         ",
"                .++++++++++++++++++++++++++++#                  ",
"                .++++++++++++++++++++++++++++#                  ",
"                .++++++++++++++++++++++++++++#                  ",
"                .++++++++++++++++++++++++++++#                  ",
"                .++++++++++++++++++++++++++++#                  ",
"                                                                ",
"                                                                ",
"                                                                ",
"                                                                ",
"                                                                ",
"                                                                ",
"                                                                ",
"                                                                ",
"                                                                "};
