/* XPM */
static char * N_xpm[] = {
"64 64 103 2",
"  	c #32E919",
". 	c #E14A69",
"+ 	c #E9196E",
"@ 	c #B8A056",
"# 	c #C1945B",
"$ 	c #8CC841",
"% 	c #E62C6D",
"& 	c #65DB2E",
"* 	c #E81E6E",
"= 	c #73D635",
"- 	c #C9875E",
"; 	c #81CF3B",
"> 	c #D07961",
", 	c #DD5768",
"' 	c #8DC743",
") 	c #9DBB4A",
"! 	c #D66C64",
"~ 	c #38E81C",
"{ 	c #3FE61F",
"] 	c #D86965",
"^ 	c #9ABE48",
"/ 	c #3DE71E",
"( 	c #8FC643",
"_ 	c #DD5C68",
": 	c #3DE720",
"< 	c #D27863",
"[ 	c #A3B54D",
"} 	c #83CE3C",
"| 	c #E04E69",
"1 	c #4CE425",
"2 	c #CA865E",
"3 	c #AEAC51",
"4 	c #75D537",
"5 	c #E3406B",
"6 	c #57E028",
"7 	c #C2935B",
"8 	c #B7A156",
"9 	c #68DA30",
"0 	c #E72F6C",
"a 	c #63DC2D",
"b 	c #B99E57",
"c 	c #BF9659",
"d 	c #5BDF29",
"e 	c #E43B6B",
"f 	c #E7226D",
"g 	c #71D634",
"h 	c #B1A952",
"i 	c #C88A5E",
"j 	c #50E323",
"k 	c #E2496A",
"l 	c #7FD03A",
"m 	c #A7B34D",
"n 	c #CF7B61",
"o 	c #42E61E",
"p 	c #DD5868",
"q 	c #8DC840",
"r 	c #9CBB49",
"s 	c #D56E64",
"t 	c #3BE81B",
"u 	c #D76766",
"v 	c #97C047",
"w 	c #92C444",
"x 	c #DC5F67",
"y 	c #40E71D",
"z 	c #D37562",
"A 	c #A2B74C",
"B 	c #84CC3D",
"C 	c #DF4F6A",
"D 	c #4AE422",
"E 	c #CB835F",
"F 	c #ACAD51",
"G 	c #78D438",
"H 	c #E3426A",
"I 	c #55E129",
"J 	c #C3915C",
"K 	c #B6A354",
"L 	c #6BDA31",
"M 	c #E6296C",
"N 	c #E6316C",
"O 	c #60DD2E",
"P 	c #BB9C57",
"Q 	c #BE9858",
"R 	c #5FDE2B",
"S 	c #E4376B",
"T 	c #E7266D",
"U 	c #6ED733",
"V 	c #B2A754",
"W 	c #C78C5C",
"X 	c #52E326",
"Y 	c #E1476B",
"Z 	c #7CD139",
"` 	c #A9B14E",
" .	c #CE7E61",
"..	c #44E521",
"+.	c #DE5569",
"@.	c #9FBA49",
"#.	c #D96566",
"$.	c #95C344",
"%.	c #35E919",
"&.	c #D37364",
"*.	c #87CB3F",
"=.	c #CD8160",
"-.	c #79D238",
"                                                                                                                                ",
"                                                                                                                                ",
"                                                                                                                                ",
"                                                                                                                                ",
"                                                                                                                                ",
"                                                                                                                                ",
"                                                                                                                                ",
"                                                                                                                                ",
"                                                                                                                                ",
"                            . + + + + + + + @                                       # + + + + + $                               ",
"                            . + + + + + + + % &                                     # + + + + + $                               ",
"                            . + + + + + + + + #                                     # + + + + + $                               ",
"                            . + + + + + + + + * =                                   # + + + + + $                               ",
"                            . + + + + + + + + + -                                   # + + + + + $                               ",
"                            . + + + + + + + + + + ;                                 # + + + + + $                               ",
"                            . + + + + + + + + + + >                                 # + + + + + $                               ",
"                            . + + + + + , + + + + + '                               # + + + + + $                               ",
"                            . + + + + + ) + + + + + ! ~                             # + + + + + $                               ",
"                            . + + + + + { ] + + + + + ^                             # + + + + + $                               ",
"                            . + + + + + / ( + + + + + _ :                           # + + + + + $                               ",
"                            . + + + + + /   < + + + + + [                           # + + + + + $                               ",
"                            . + + + + + /   } + + + + + | 1                         # + + + + + $                               ",
"                            . + + + + + /     2 + + + + + 3                         # + + + + + $                               ",
"                            . + + + + + /     4 * + + + + 5 6                       # + + + + + $                               ",
"                            . + + + + + /       7 + + + + + 8                       # + + + + + $                               ",
"                            . + + + + + /       9 % + + + + 0 a                     # + + + + + $                               ",
"                            . + + + + + /         b + + + + + c                     # + + + + + $                               ",
"                            . + + + + + /         d e + + + + f g                   # + + + + + $                               ",
"                            . + + + + + /           h + + + + + i                   # + + + + + $                               ",
"                            . + + + + + /           j k + + + + + l                 # + + + + + $                               ",
"                            . + + + + + /             m + + + + + n                 # + + + + + $                               ",
"                            . + + + + + /             o p + + + + + q               # + + + + + $                               ",
"                            . + + + + + /               r + + + + + s ~             # + + + + + $                               ",
"                            . + + + + + /               t u + + + + + v             # + + + + + $                               ",
"                            . + + + + + /                 w + + + + + x y           # + + + + + $                               ",
"                            . + + + + + /                   z + + + + + A           # + + + + + $                               ",
"                            . + + + + + /                   B + + + + + C D         # + + + + + $                               ",
"                            . + + + + + /                     E + + + + + F         # + + + + + $                               ",
"                            . + + + + + /                     G * + + + + H I       # + + + + + $                               ",
"                            . + + + + + /                       J + + + + + K       # + + + + + $                               ",
"                            . + + + + + /                       L M + + + + N O     # + + + + + $                               ",
"                            . + + + + + /                         P + + + + + Q     # + + + + + $                               ",
"                            . + + + + + /                         R S + + + + T U   # + + + + + $                               ",
"                            . + + + + + /                           V + + + + + W   # + + + + + $                               ",
"                            . + + + + + /                           X Y + + + + + Z # + + + + + $                               ",
"                            . + + + + + /                             ` + + + + +  .# + + + + + $                               ",
"                            . + + + + + /                             ..+.+ + + + + p + + + + + $                               ",
"                            . + + + + + /                               @.+ + + + + + + + + + + $                               ",
"                            . + + + + + /                               / #.+ + + + + + + + + + $                               ",
"                            . + + + + + /                                 $.+ + + + + + + + + + $                               ",
"                            . + + + + + /                                 %.&.+ + + + + + + + + $                               ",
"                            . + + + + + /                                   *.+ + + + + + + + + $                               ",
"                            . + + + + + /                                     =.+ + + + + + + + $                               ",
"                            . + + + + + /                                     -.+ + + + + + + + $                               ",
"                                                                                                                                ",
"                                                                                                                                ",
"                                                                                                                                ",
"                                                                                                                                ",
"                                                                                                                                ",
"                                                                                                                                ",
"                                                                                                                                ",
"                                                                                                                                ",
"                                                                                                                                ",
"                                                                                                                                "};
