/* XPM */
static char * S_xpm[] = {
"64 64 146 2",
"  	c #1946E9",
". 	c #6741DC",
"+ 	c #973AC7",
"@ 	c #B731AF",
"# 	c #CF2897",
"$ 	c #D8238A",
"% 	c #DF207F",
"& 	c #E61A73",
"* 	c #E61B72",
"= 	c #E21E7A",
"- 	c #DE2081",
"; 	c #D7258C",
"> 	c #C92A9D",
", 	c #BB30AC",
"' 	c #A835BB",
") 	c #883CCE",
"! 	c #5843DF",
"~ 	c #3E45E5",
"{ 	c #9B39C4",
"] 	c #D12793",
"^ 	c #E9196E",
"/ 	c #E01E7C",
"( 	c #C52CA1",
"_ 	c #A138C0",
": 	c #6B41DA",
"< 	c #1F46E9",
"[ 	c #8B3CCD",
"} 	c #7040D9",
"| 	c #3345E6",
"1 	c #BF2FA8",
"2 	c #2F45E7",
"3 	c #CD2A9A",
"4 	c #BD30AA",
"5 	c #E61A70",
"6 	c #CA2A9C",
"7 	c #A137C0",
"8 	c #813ED2",
"9 	c #4544E4",
"0 	c #2846E8",
"a 	c #4244E4",
"b 	c #5B42DE",
"c 	c #7140D8",
"d 	c #943AC8",
"e 	c #B333B3",
"f 	c #CC2A9B",
"g 	c #883DCF",
"h 	c #E71A6F",
"i 	c #BC30AC",
"j 	c #5443E1",
"k 	c #3845E6",
"l 	c #B931AE",
"m 	c #D32690",
"n 	c #8E3BCB",
"o 	c #913BC9",
"p 	c #6D41D9",
"q 	c #7540D7",
"r 	c #9D38C3",
"s 	c #AC35B9",
"t 	c #D6258D",
"u 	c #C62CA0",
"v 	c #A935BA",
"w 	c #8E3CCC",
"x 	c #DD2183",
"y 	c #7F3ED2",
"z 	c #DA2387",
"A 	c #D12794",
"B 	c #B133B4",
"C 	c #C32DA3",
"D 	c #3B45E5",
"E 	c #A038C1",
"F 	c #C22EA5",
"G 	c #6142DD",
"H 	c #E8196F",
"I 	c #793FD5",
"J 	c #C22EA4",
"K 	c #D32691",
"L 	c #A836BC",
"M 	c #2446E8",
"N 	c #E41D76",
"O 	c #E21D78",
"P 	c #CB2A9C",
"Q 	c #AF34B6",
"R 	c #5843E0",
"S 	c #DD2082",
"T 	c #9D38C2",
"U 	c #6741DB",
"V 	c #D5258E",
"W 	c #A437BE",
"X 	c #4F43E1",
"Y 	c #C82CA0",
"Z 	c #E41B75",
"` 	c #AE34B7",
" .	c #763FD6",
"..	c #C42DA3",
"+.	c #7A3FD4",
"@.	c #4744E4",
"#.	c #C42CA2",
"$.	c #E01E7D",
"%.	c #E71A72",
"&.	c #953AC7",
"*.	c #6841DB",
"=.	c #9839C5",
"-.	c #B831AF",
";.	c #D22894",
">.	c #E71A71",
",.	c #2C45E8",
"'.	c #753FD6",
").	c #A536BD",
"!.	c #CE2897",
"~.	c #5143E1",
"{.	c #6C40D9",
"].	c #E41B76",
"^.	c #4944E3",
"/.	c #5343E1",
"(.	c #DD2184",
"_.	c #8C3CCC",
":.	c #DC2183",
"<.	c #B033B5",
"[.	c #BE2FA9",
"}.	c #DC2285",
"|.	c #C02EA7",
"1.	c #823ED1",
"2.	c #9F38C2",
"3.	c #D92389",
"4.	c #5E42DE",
"5.	c #A736BD",
"6.	c #4B44E2",
"7.	c #4744E3",
"8.	c #D12895",
"9.	c #C92B9E",
"0.	c #963AC7",
"a.	c #3045E7",
"b.	c #9939C5",
"c.	c #B831AE",
"d.	c #9839C6",
"e.	c #773FD6",
"f.	c #6541DC",
"g.	c #9A3AC5",
"h.	c #E11D7C",
"i.	c #B632B1",
"j.	c #843DD0",
"k.	c #6F40D9",
"l.	c #E31D77",
"m.	c #D22793",
"n.	c #AA35B9",
"o.	c #853DD0",
"                                                                                                                                ",
"                                                                                                                                ",
"                                                                                                                                ",
"                                                                                                                                ",
"                                                                                                                                ",
"                                                                                                                                ",
"                                          . + @ # $ % & * = - ; > , ' ) !                                                       ",
"                                    ~ { ] ^ ^ ^ ^ ^ ^ ^ ^ ^ ^ ^ ^ ^ ^ ^ ^ / ( _ : <                                             ",
"                                  [ - ^ ^ ^ ^ ^ ^ ^ ^ ^ ^ ^ ^ ^ ^ ^ ^ ^ ^ ^ ^ ^ ^ }                                             ",
"                              | 1 ^ ^ ^ ^ ^ ^ ^ ^ ^ ^ ^ ^ ^ ^ ^ ^ ^ ^ ^ ^ ^ ^ ^ ^ }                                             ",
"                            2 3 ^ ^ ^ ^ ^ ^ ^ ^ ^ ^ ^ ^ ^ ^ ^ ^ ^ ^ ^ ^ ^ ^ ^ ^ ^ }                                             ",
"                            4 ^ ^ ^ ^ ^ ^ ^ 5 6 7 8 ! 9 0 a b c d e f & ^ ^ ^ ^ ^ }                                             ",
"                          g ^ ^ ^ ^ ^ ^ h i j                         k ) l / ^ ^ }                                             ",
"                          m ^ ^ ^ ^ ^ & n                                   2 o f p                                             ",
"                        q ^ ^ ^ ^ ^ ^ r                                                                                         ",
"                        s ^ ^ ^ ^ ^ t <                                                                                         ",
"                        u ^ ^ ^ ^ ^ v                                                                                           ",
"                        ; ^ ^ ^ ^ ^ w                                                                                           ",
"                        x ^ ^ ^ ^ ^ y                                                                                           ",
"                        z ^ ^ ^ ^ ^ n                                                                                           ",
"                        A ^ ^ ^ ^ ^ B                                                                                           ",
"                        C ^ ^ ^ ^ ^ - D                                                                                         ",
"                        E ^ ^ ^ ^ ^ ^ F 0                                                                                       ",
"                        G H ^ ^ ^ ^ ^ ^ A I                                                                                     ",
"                          J ^ ^ ^ ^ ^ ^ ^ ^ K L p M                                                                             ",
"                          . N ^ ^ ^ ^ ^ ^ ^ ^ ^ ^ O P Q [ R                                                                     ",
"                            [ H ^ ^ ^ ^ ^ ^ ^ ^ ^ ^ ^ ^ ^ ^ S F T U                                                             ",
"                              [ = ^ ^ ^ ^ ^ ^ ^ ^ ^ ^ ^ ^ ^ ^ ^ ^ ^ V W X                                                       ",
"                                G Y ^ ^ ^ ^ ^ ^ ^ ^ ^ ^ ^ ^ ^ ^ ^ ^ ^ ^ Z ` ~                                                   ",
"                                     ...& ^ ^ ^ ^ ^ ^ ^ ^ ^ ^ ^ ^ ^ ^ ^ ^ ^ - +.                                                ",
"                                        @.{ #.$.^ ^ ^ ^ ^ ^ ^ ^ ^ ^ ^ ^ ^ ^ ^ %.&.                                              ",
"                                                *.=.-.;.Z ^ ^ ^ ^ ^ ^ ^ ^ ^ ^ ^ >.8                                             ",
"                                                        ,.'.).!.H ^ ^ ^ ^ ^ ^ ^ ^ / ~.                                          ",
"                                                                b @ %.^ ^ ^ ^ ^ ^ ^ e                                           ",
"                                                                    {.$ ^ ^ ^ ^ ^ ^ ].^.                                        ",
"                                                                      /.(.^ ^ ^ ^ ^ ^ n                                         ",
"                                                                        _.^ ^ ^ ^ ^ ^ @                                         ",
"                                                                          :.^ ^ ^ ^ ^ 3                                         ",
"                                                                          1 ^ ^ ^ ^ ^ V                                         ",
"                                                                          <.^ ^ ^ ^ ^ x                                         ",
"                                                                          <.^ ^ ^ ^ ^ z                                         ",
"                                                                          [.^ ^ ^ ^ ^ A                                         ",
"                                                                          }.^ ^ ^ ^ ^ |.                                        ",
"                                                                        1.^ ^ ^ ^ ^ ^ E                                         ",
"                        , 2.|                                         D 3.^ ^ ^ ^ ^ H 4.                                        ",
"                        f ^ % 5.6.                                  7.8.^ ^ ^ ^ ^ ^ 6                                           ",
"                        f ^ ^ ^ 5 9.0.a                         a.b.% ^ ^ ^ ^ ^ ^ h  .                                          ",
"                        f ^ ^ ^ ^ ^ ^ * K c.d.e.f.^.0 D j q g.i h.^ ^ ^ ^ ^ ^ ^ ^ B                                             ",
"                        f ^ ^ ^ ^ ^ ^ ^ ^ ^ ^ ^ ^ ^ ^ ^ ^ ^ ^ ^ ^ ^ ^ ^ ^ ^ ^ ^ ..0                                             ",
"                        f ^ ^ ^ ^ ^ ^ ^ ^ ^ ^ ^ ^ ^ ^ ^ ^ ^ ^ ^ ^ ^ ^ ^ ^ ^ ^ i.0                                               ",
"                        ~.E # H ^ ^ ^ ^ ^ ^ ^ ^ ^ ^ ^ ^ ^ ^ ^ ^ ^ ^ ^ ^ ^ t j.                                                  ",
"                              ! 2.C / ^ ^ ^ ^ ^ ^ ^ ^ ^ ^ ^ ^ ^ ^ ^ & Y [ M                                                     ",
"                                    < k.+ <.( V :.= h 5 l.(.m.F n.o.D                                                           ",
"                                                                                                                                ",
"                                                                                                                                ",
"                                                                                                                                ",
"                                                                                                                                ",
"                                                                                                                                ",
"                                                                                                                                ",
"                                                                                                                                ",
"                                                                                                                                ",
"                                                                                                                                ",
"                                                                                                                                ",
"                                                                                                                                "};
