/* XPM */
static char * W_xpm[] = {
"64 64 159 2",
"  	c #E9E219",
". 	c #E86B65",
"+ 	c #E9196E",
"@ 	c #E9BA46",
"# 	c #E85069",
"$ 	c #E9CB3A",
"% 	c #E9DB25",
"& 	c #E81E6E",
"* 	c #E9D233",
"= 	c #E99D55",
"- 	c #E99658",
"; 	c #E9D232",
"> 	c #E9AC4E",
", 	c #E9C043",
"' 	c #E85268",
") 	c #E9C042",
"! 	c #E85F66",
"~ 	c #E9B44A",
"{ 	c #E8825E",
"] 	c #E98E5B",
"^ 	c #E8226D",
"/ 	c #E9D72D",
"( 	c #E98D5B",
"_ 	c #E83C6B",
": 	c #E9E01E",
"< 	c #E86C63",
"[ 	c #E9B54A",
"} 	c #E9D332",
"| 	c #E99E54",
"1 	c #E85468",
"2 	c #E8C143",
"3 	c #E9B449",
"4 	c #E88060",
"5 	c #E8905A",
"6 	c #E9DC26",
"7 	c #E9BF43",
"8 	c #E84B69",
"9 	c #E86D63",
"0 	c #E8B649",
"a 	c #E86E63",
"b 	c #E9DA27",
"c 	c #E88A5C",
"d 	c #E9D430",
"e 	c #E89F55",
"f 	c #E86965",
"g 	c #E9B04B",
"h 	c #E95867",
"i 	c #E8C141",
"j 	c #E89B56",
"k 	c #E9CF35",
"l 	c #E89259",
"m 	c #E9DC23",
"n 	c #E8256D",
"o 	c #E9BE43",
"p 	c #E9E11C",
"q 	c #E8456B",
"r 	c #E83E6B",
"s 	c #E9B847",
"t 	c #E86F64",
"u 	c #E9D928",
"v 	c #E9855E",
"w 	c #E9D52F",
"x 	c #E99F54",
"y 	c #E9D331",
"z 	c #E96565",
"A 	c #E9AD4D",
"B 	c #E85B67",
"C 	c #E9C240",
"D 	c #E89857",
"E 	c #E8CC38",
"F 	c #E89458",
"G 	c #E9DC24",
"H 	c #E8BC45",
"I 	c #E9E11B",
"J 	c #E9B948",
"K 	c #E97162",
"L 	c #E85369",
"M 	c #E9D82B",
"N 	c #E8815E",
"O 	c #E8D62E",
"P 	c #E8A154",
"Q 	c #E86066",
"R 	c #E8AA50",
"S 	c #E8C241",
"T 	c #E85E66",
"U 	c #E9C241",
"V 	c #E9C93B",
"W 	c #E99558",
"X 	c #E9DD25",
"Y 	c #E8286C",
"Z 	c #E88F5A",
"` 	c #E9BA47",
" .	c #E9E020",
"..	c #E8356B",
"+.	c #E77064",
"@.	c #E87263",
"#.	c #E9BB46",
"$.	c #E97B60",
"%.	c #E9CC38",
"&.	c #E8A153",
"*.	c #E89657",
"=.	c #E85D66",
"-.	c #E9A651",
";.	c #E9AC4F",
">.	c #E9C33F",
",.	c #E8C63D",
"'.	c #E8825F",
").	c #E89757",
"!.	c #E9DD22",
"~.	c #E9B848",
"{.	c #E9DE21",
"].	c #E92E6C",
"^.	c #E8BB45",
"/.	c #E97362",
"(.	c #E87661",
"_.	c #E8A253",
":.	c #E8A353",
"<.	c #E76466",
"[.	c #E9C440",
"}.	c #E89159",
"|.	c #E9DE23",
"1.	c #E82B6D",
"2.	c #E9905B",
"3.	c #E9BD44",
"4.	c #E87562",
"5.	c #E85568",
"6.	c #E96665",
"7.	c #E9C53F",
"8.	c #E8A254",
"9.	c #E89A57",
"0.	c #E9DE20",
"a.	c #E85767",
"b.	c #E86A64",
"c.	c #E9DA28",
"d.	c #E9A452",
"e.	c #E84F69",
"f.	c #E9C53D",
"g.	c #E88C5C",
"h.	c #E89C56",
"i.	c #E9B34B",
"j.	c #E97463",
"k.	c #E87761",
"l.	c #E9D035",
"m.	c #E8C73D",
"n.	c #E9DB27",
"o.	c #E9A552",
"p.	c #E97D60",
"q.	c #E84A69",
"r.	c #E9C63E",
"s.	c #E8895D",
"t.	c #E9306C",
"u.	c #E87862",
"v.	c #E9A551",
"w.	c #E89359",
"x.	c #E8865D",
"y.	c #E9DF1E",
"z.	c #E9AE4D",
"A.	c #E87A61",
"B.	c #E9CD38",
"                                                                                                                                ",
"                                                                                                                                ",
"                                                                                                                                ",
"                                                                                                                                ",
"                                                                                                                                ",
"                                                                                                                                ",
"                                                                                                                                ",
"                                                                                                                                ",
"                                                                                                                                ",
"                                                                                                                                ",
"  . + + + + + @                                     # + + + + + + $                                   % & + + + + + *           ",
"  = + + + + + -                                   ; + + + + + + + >                                   , + + + + + '             ",
"  ) + + + + + !                                   ~ + + + + + + + {                                   = + + + + + ]             ",
"  % ^ + + + + + /                                 ( + + + + + + + _ :                                 < + + + + + [             ",
"    < + + + + + @                                 # + + + + + + + + $                               % ^ + + + + + }             ",
"    | + + + + + -                               ; + + + + + + + + + >                               ) + + + + + 1               ",
"    2 + + + + + !                               3 + + + + 4 + + + + {                               = + + + + + 5               ",
"    6 ^ + + + + + /                             ] + + + + 7 8 + + + _ :                             9 + + + + + 0               ",
"      a + + + + + @                             ' + + + & b c + + + + $                           6 ^ + + + + + d               ",
"      e + + + + + -                           * + + + + f   g + + + + >                           2 + + + + + h                 ",
"      i + + + + + !                           3 + + + + j   k + + + + {                           | + + + + + l                 ",
"      m n + + + + + /                         ] + + + + o   p q + + + r :                         a + + + + + s                 ",
"        t + + + + + @                         ' + + + + u     v + + + + $                       m ^ + + + + + w                 ",
"        x + + + + + -                       y + + + + z       A + + + + >                       i + + + + + B                   ",
"        C + + + + + !                       [ + + + + D       E + + + + {                       e + + + + + F                   ",
"        G n + + + + + /                     ] + + + + H       I _ + + + r :                     t + + + + + J                   ",
"          K + + + + + @                     L + + + + M         N + + + + $                   G n + + + + + O                   ",
"          P + + + + + -                   y + + + + Q           R + + + + >                   S + + + + + T                     ",
"          U + + + + + !                   [ + + + + -           V + + + + {                   x + + + + + W                     ",
"          X Y + + + + + M                 Z + + + + `            ...+ + + r I                 +.+ + + + + @                     ",
"            @.+ + + + + #.                1 + + + + O             $.+ + + + %.              G n + + + + + /                     ",
"            &.+ + + + + *.              y + + + + =.              -.+ + + + ;.              C + + + + + Q                       ",
"            >.+ + + + + Q               [ + + + + F               ,.+ + + + '.              P + + + + + ).                      ",
"            !.Y + + + + + M             Z + + + + ~.              {.].+ + + r I             K + + + + + ^.                      ",
"              /.+ + + + + #.            1 + + + + w                 (.+ + + + %.          X n + + + + + M                       ",
"              _.+ + + + + *.          } + + + + h                   :.+ + + + ;.          U + + + + + <.                        ",
"              [.+ + + + + Q           0 + + + + }.                  >.+ + + + '.          &.+ + + + + D                         ",
"              |.1.+ + + + + M         2.+ + + + 0                   X n + + + r I         @.+ + + + + 3.                        ",
"                4.+ + + + + #.        5.+ + + + }                     +.+ + + + %.      !.Y + + + + + u                         ",
"                :.+ + + + + *.      } + + + + L                       x + + + + ;.      >.+ + + + + 6.                          ",
"                7.+ + + + + Q       0 + + + + ]                       2 + + + + '.      8.+ + + + + 9.                          ",
"                0.1.+ + + + + M     5 + + + + 3                       % & + + + r I     /.+ + + + + o                           ",
"                  (.+ + + + + #.    a.+ + + + ;                         b.+ + + + %.  !.Y + + + + & c.                          ",
"                  d.+ + + + + *.  d + + + + e.                          j + + + + ;.  >.+ + + + + f                             ",
"                  f.+ + + + + Q   0 + + + + g.                          o + + + + '.  _.+ + + + + h.                            ",
"                  {.].+ + + + + M 5 + + + + i.                          u + + + + r I j.+ + + + + 7                             ",
"                    k.+ + + + + #.a.+ + + + l.                            <.+ + + + m.1.+ + + + & n.                            ",
"                    o.+ + + + + p.+ + + + q.                              ).+ + + + p.+ + + + + .                               ",
"                    r.+ + + + + + + + + + s.                              #.+ + + + + + + + + + =                               ",
"                    {.t.+ + + + + + + + + g                               / + + + + + + + + + + )                               ",
"                      u.+ + + + + + + + + k                                 =.+ + + + + + + + ^ %                               ",
"                      v.+ + + + + + + + q p                                 w.+ + + + + + + + a                                 ",
"                      m.+ + + + + + + + x.                                  s + + + + + + + + e                                 ",
"                      y.t.+ + + + + + + z.                                  d + + + + + + + + S                                 ",
"                        A.+ + + + + + + B.                                    5.+ + + + + + n m                                 ",
"                                                                                                                                ",
"                                                                                                                                ",
"                                                                                                                                ",
"                                                                                                                                ",
"                                                                                                                                ",
"                                                                                                                                ",
"                                                                                                                                ",
"                                                                                                                                ",
"                                                                                                                                "};
